X: 2350
T: Polska efter Snickar Erik
S: efter Snickar-Erik Olsson
O: Emnebo, Ovanåkers socken, Hälsingland
B: EÖ, nr 509
R: Polska
Z: Nils L
M: 3/4
L: 1/16
K: D
dcde     fgeg     fage     | defg     afdf     afdf     | a2a2 gbge     fafd     | egec     dcdA  GFED |
(dc)(de) (fg)(eg) (fa)(ge) | (de)(fg) (af)(df) (af)(df) | a2a2 (gb)(ge) (fa)(fd) | (eg)(ec) [dD]8      ::
gfef   f2e2 e2e2 | gfef   f2e2 e2e2 | gfef   gbge   (fa)fd | egec   dcdA  GFED  |
(gf)ef f2e2 e2e2 | (gf)ef f2e2 e2e2 | (gf)ef (gb)ge (fa)fd | (eg)ec [Dd]8      :|
(:musicend:)

(:music:)
